places/scalable/folder-magenta-java.svg

<svg xmlns="http://www.w3.org/2000/svg" style="isolation:isolate" width="256" height="256"><path d="M53.039 21C16.724 21 13 23.055 13 59.371v52.167h230V79.563c0-36.316-3.724-42.102-40.039-42.102h-89.336L97.198 21H53.039z" fill="#C61B34"/><path d="M53.039 70.384C16.722 70.384 13 74.114 13 110.429v84.524C13 231.269 16.722 235 53.039 235h149.922c36.317 0 40.039-3.731 40.039-40.047V93.969c0-36.316-3.722-40.047-40.039-40.047H119.53l-16.438 16.462H53.039z" fill="#F74761"/><linearGradient id="a" y1=".5" x2="0" y2="-.5" gradientTransform="matrix(230 0 0 181.078 13 53.922)" gradientUnits="userSpaceOnUse"><stop offset="0%" stop-opacity=".07" stop-color="#fff"/><stop offset="67.282%" stop-opacity="0" stop-color="#fcefe8"/></linearGradient><path d="M53.039 70.384C16.722 70.384 13 74.114 13 110.429v84.524C13 231.269 16.722 235 53.039 235h149.922c36.317 0 40.039-3.731 40.039-40.047V93.969c0-36.316-3.722-40.047-40.039-40.047H119.53l-16.438 16.462H53.039z" fill="url(#a)"/><g opacity=".4"><radialGradient id="b" fx=".5" fy=".136" cx=".5" cy=".5" r=".272" gradientTransform="matrix(230 0 0 60.62 13 21)" gradientUnits="userSpaceOnUse"><stop offset="0%" stop-color="#fff"/><stop offset="100%" stop-opacity=".204" stop-color="#fff"/></radialGradient><path d="M53.039 21C16.724 21 13 23.055 13 59.371v2.059c0-36.316 3.724-38.373 40.039-38.373h44.159l16.427 16.461h89.336c36.315 0 40.039 5.786 40.039 42.102v-2.057c0-36.316-3.724-42.102-40.039-42.102h-89.336L97.198 21H53.039z" fill="url(#b)"/></g><g opacity=".4"><radialGradient id="c" fx=".482" fy=".211" cx=".5" cy=".5" r=".272" gradientTransform="matrix(230 0 0 58.565 13 53.922)" gradientUnits="userSpaceOnUse"><stop offset="0%" stop-color="#fff"/><stop offset="100%" stop-opacity=".204" stop-color="#fff"/></radialGradient><path d="M119.53 53.922l-16.438 16.462H53.039C16.724 70.384 13 74.112 13 110.427v2.06c0-36.316 3.724-40.046 40.039-40.046h50.053l16.438-16.46h83.431c36.315 0 40.039 3.727 40.039 40.043v-2.057c0-36.316-3.724-40.045-40.039-40.045H119.53z" fill="url(#c)"/></g><path d="M243 167.096l-65.715 65.845h25.676c36.315 0 40.039-3.727 40.039-40.043v-25.802z" fill="#FFF" opacity=".1"/><path d="M13 192.898v2.057C13 231.271 16.724 235 53.039 235h149.922c36.315 0 40.039-3.729 40.039-40.045v-2.057c0 36.316-3.724 40.043-40.039 40.043H53.039c-36.315 0-40.039-3.727-40.039-40.043z" opacity=".2"/><g opacity=".62" fill="#FFF"><path d="M127.406 114.235c-5.543 3.9-11.825 8.32-15.191 15.633-5.847 12.758 11.963 26.674 12.725 27.261a.981.981 0 0 0 1.23-.026.983.983 0 0 0 .242-1.207c-.064-.125-6.457-12.546-6.22-21.458.084-3.104 4.426-6.625 9.023-10.352 4.211-3.415 8.983-7.285 11.776-11.812 6.13-9.964-.684-19.763-.753-19.86a.984.984 0 0 0-1.763.775c.014.065 1.339 6.545-2.348 13.22-1.519 2.759-4.856 5.107-8.721 7.826z"/><path d="M150.759 118.629a.983.983 0 0 0-.941-1.705c-.941.358-23.058 8.886-23.058 19.191 0 7.103 3.033 10.855 5.248 13.596.869 1.074 1.619 2.003 1.866 2.795.696 2.283-.953 6.411-1.646 7.809a.983.983 0 0 0 1.442 1.245c.38-.265 9.294-6.569 7.695-14.164-.595-2.887-2.014-4.997-3.265-6.858-1.939-2.884-3.339-4.967-1.215-8.815 2.489-4.487 13.76-13.009 13.874-13.094z"/><path d="M93.188 161.899c-.379 1.136-.2 2.262.517 3.259 2.398 3.33 10.89 5.163 23.914 5.163h.002c1.765 0 3.628-.035 5.536-.103 20.823-.746 28.546-7.235 28.865-7.511a.983.983 0 0 0-.902-1.692c-7.334 2.003-21.028 2.714-30.526 2.714-10.628 0-16.041-.766-17.366-1.331.68-.934 4.874-2.602 10.07-3.625a.983.983 0 1 0-.189-1.948c-3.047 0-18.324.244-19.921 5.074zM162.866 155.215c-4.295 0-8.367 2.154-8.539 2.245a.985.985 0 0 0 .463 1.851c.091 0 9.162.074 9.983 5.258.728 4.473-8.582 11.719-12.231 14.134a.984.984 0 0 0 .748 1.782c.866-.185 21.181-4.663 19.033-16.496-1.31-7.251-5.866-8.774-9.457-8.774zM148.934 177.255a.985.985 0 0 0-.402-.986l-4.872-3.413a.985.985 0 0 0-.816-.145c-.051.013-5.145 1.353-12.541 2.174-2.935.33-6.223.503-9.508.503-7.394 0-12.228-.869-12.932-1.506-.094-.179-.064-.26-.047-.306.127-.356.813-.778 1.255-.946a.982.982 0 0 0-.572-1.878c-4.886 1.179-7.276 2.829-7.102 4.902.309 3.677 8.821 5.564 16.018 6.062 1.034.071 2.154.107 3.325.107h.002c11.967 0 27.307-3.756 27.461-3.794a.98.98 0 0 0 .731-.774zM112.209 185.145a.982.982 0 0 0-.563-1.807c-.655.018-6.408.277-6.81 3.941-.122 1.095.191 2.096.932 2.974 2.065 2.448 7.641 3.904 17.043 4.449 1.112.067 2.242.1 3.358.1 11.953 0 20.002-3.743 20.34-3.903a.983.983 0 0 0 .092-1.729l-6.156-3.759a.99.99 0 0 0-.713-.124c-.039.009-3.948.819-9.847 1.621-1.116.151-2.514.229-4.154.229-5.892 0-12.446-.964-13.703-1.594-.019-.118.005-.267.181-.398z"/><path d="M120.598 206.106c27.379-.024 42.073-4.894 44.904-7.959 1.002-1.084 1.11-2.111 1.025-2.781-.21-1.65-1.713-2.66-1.883-2.77a.993.993 0 0 0-1.283.174.972.972 0 0 0-.007 1.28c.173.223.273.595-.232 1.1-1.132 1.057-12.545 4.267-31.549 5.231-2.603.135-5.334.204-8.115.204-17.015 0-29.468-2.331-31.103-3.69.63-.905 5.035-2.352 9.719-3.17a.984.984 0 0 0-.3-1.945c-.132.018-.581.045-1.1.077-7.729.472-16.66 1.524-17.127 5.508-.141 1.214.22 2.316 1.073 3.275 2.087 2.346 8.087 5.465 35.977 5.465l.001.001z"/><path d="M170.879 199.011a.982.982 0 0 0-1.133.223c-.04.043-4.156 4.349-16.533 6.877-4.738.95-13.632 1.432-26.434 1.432-12.827 0-25.032-.505-25.153-.51a.984.984 0 0 0-.27 1.939c.127.03 12.918 3.028 30.407 3.028 8.388 0 16.55-.681 24.261-2.026 14.376-2.521 15.383-9.652 15.419-9.955a.983.983 0 0 0-.564-1.008z"/></g></svg>

<?xml version="1.0" standalone="no"?><!-- Generator: Gravit.io -->
<svg xmlns="http://www.w3.org/2000/svg" 
  xmlns:xlink="http://www.w3.org/1999/xlink" style="isolation:isolate" viewBox="0 0 256 256" width="256" height="256">
  <switch>
    <g>
      <g id="folder">
        <path d=" M 53.039 21 C 16.724 21 13 23.055 13 59.371 L 13 111.538 L 243 111.538 L 243 79.563 C 243 43.247 239.276 37.461 202.961 37.461 L 113.625 37.461 L 97.198 21 L 53.039 21 Z " id="orange" fill="#C61B34"/>
        <path d=" M 53.039 70.384 C 16.722 70.384 13 74.114 13 110.429 L 13 194.953 C 13 231.269 16.722 235 53.039 235 L 202.961 235 C 239.278 235 243 231.269 243 194.953 L 243 93.969 C 243 57.653 239.278 53.922 202.961 53.922 L 119.53 53.922 L 103.092 70.384 L 53.039 70.384 Z " id="change-color-easy" fill="#F74761"/>
        <linearGradient id="_lgradient_18" x1="0" y1="0.5" x2="2.83276944882399e-16" y2="-0.5" gradientTransform="matrix(230,0,0,181.078,13,53.922)" gradientUnits="userSpaceOnUse">
          <stop offset="0%" stop-opacity="0.07" style="stop-color:rgb(255,255,255)"/>
          <stop offset="67.28219512106674%" stop-opacity="0" style="stop-color:rgb(252,239,232)"/>
        </linearGradient>
        <path d=" M 53.039 70.384 C 16.722 70.384 13 74.114 13 110.429 L 13 194.953 C 13 231.269 16.722 235 53.039 235 L 202.961 235 C 239.278 235 243 231.269 243 194.953 L 243 93.969 C 243 57.653 239.278 53.922 202.961 53.922 L 119.53 53.922 L 103.092 70.384 L 53.039 70.384 Z " id="gradient white" fill="url(#_lgradient_18)"/>
        <g opacity="0.4">
          <radialGradient id="_rgradient_35" fx="0.5000000213726793" fy="0.13577386516315215" cx="0.5" cy="0.5" r="0.27154159375000003" gradientTransform="matrix(230,0,0,60.62,13,21)" gradientUnits="userSpaceOnUse">
            <stop offset="0%" stop-opacity="1" style="stop-color:rgb(255,255,255)"/>
            <stop offset="100%" stop-opacity="0.20392157" style="stop-color:rgb(255,255,255)"/>
          </radialGradient>
          <path d=" M 53.039 21 C 16.724 21 13 23.055 13 59.371 L 13 61.43 C 13 25.114 16.724 23.057 53.039 23.057 L 97.198 23.057 L 113.625 39.518 L 202.961 39.518 C 239.276 39.518 243 45.304 243 81.62 L 243 79.563 C 243 43.247 239.276 37.461 202.961 37.461 L 113.625 37.461 L 97.198 21 L 53.039 21 Z " id="white" fill="url(#_rgradient_35)"/>
        </g>
        <g opacity="0.4">
          <radialGradient id="_rgradient_36" fx="0.48214287810452355" fy="0.2108154047287485" cx="0.5" cy="0.5" r="0.27154159375" gradientTransform="matrix(230,0,0,58.565,13,53.922)" gradientUnits="userSpaceOnUse">
            <stop offset="0%" stop-opacity="1" style="stop-color:rgb(255,255,255)"/>
            <stop offset="100%" stop-opacity="0.20392157" style="stop-color:rgb(255,255,255)"/>
          </radialGradient>
          <path d=" M 119.53 53.922 L 103.092 70.384 L 53.039 70.384 C 16.724 70.384 13 74.112 13 110.427 L 13 112.487 C 13 76.171 16.724 72.441 53.039 72.441 L 103.092 72.441 L 119.53 55.981 L 202.961 55.981 C 239.276 55.981 243 59.708 243 96.024 L 243 93.967 C 243 57.651 239.276 53.922 202.961 53.922 L 119.53 53.922 Z " id="white" fill="url(#_rgradient_36)"/>
        </g>
        <g opacity="0.1">
          <path d=" M 243 167.096 L 177.285 232.941 L 202.961 232.941 C 239.276 232.941 243 229.214 243 192.898 L 243 167.096 Z " id="white" fill="rgb(255,255,255)"/>
        </g>
        <g opacity="0.2">
          <path d=" M 13 192.898 L 13 194.955 C 13 231.271 16.724 235 53.039 235 L 202.961 235 C 239.276 235 243 231.271 243 194.955 L 243 192.898 C 243 229.214 239.276 232.941 202.961 232.941 L 53.039 232.941 C 16.724 232.941 13 229.214 13 192.898 Z " id="dark" fill="rgb(0,0,0)"/>
        </g>
      </g>
      <g id="java" style="opacity:0.62;">
        <path d=" M 127.406 114.235 C 121.863 118.135 115.581 122.555 112.215 129.868 C 106.368 142.626 124.178 156.542 124.94 157.129 C 125.117 157.265 125.328 157.333 125.539 157.333 C 125.764 157.333 125.988 157.256 126.17 157.103 C 126.524 156.807 126.624 156.305 126.412 155.896 C 126.348 155.771 119.955 143.35 120.192 134.438 C 120.276 131.334 124.618 127.813 129.215 124.086 C 133.426 120.671 138.198 116.801 140.991 112.274 C 147.121 102.31 140.307 92.511 140.238 92.414 C 139.967 92.033 139.468 91.896 139.04 92.083 C 138.614 92.271 138.377 92.733 138.475 93.189 C 138.489 93.254 139.814 99.734 136.127 106.409 C 134.608 109.168 131.271 111.516 127.406 114.235 L 127.406 114.235 Z " id="path971" fill="#FFFFFF"/>
        <path d=" M 150.759 118.629 C 151.15 118.334 151.265 117.797 151.028 117.368 C 150.792 116.939 150.276 116.75 149.818 116.924 C 148.877 117.282 126.76 125.81 126.76 136.115 C 126.76 143.218 129.793 146.97 132.008 149.711 C 132.877 150.785 133.627 151.714 133.874 152.506 C 134.57 154.789 132.921 158.917 132.228 160.315 C 132.028 160.716 132.126 161.203 132.466 161.497 C 132.65 161.655 132.879 161.736 133.109 161.736 C 133.304 161.736 133.5 161.678 133.67 161.56 C 134.05 161.295 142.964 154.991 141.365 147.396 C 140.77 144.509 139.351 142.399 138.1 140.538 C 136.161 137.654 134.761 135.571 136.885 131.723 C 139.374 127.236 150.645 118.714 150.759 118.629 L 150.759 118.629 Z " id="path973" fill="#FFFFFF"/>
        <path d=" M 93.188 161.899 C 92.809 163.035 92.988 164.161 93.705 165.158 C 96.103 168.488 104.595 170.321 117.619 170.321 C 117.62 170.321 117.621 170.321 117.621 170.321 C 119.386 170.321 121.249 170.286 123.157 170.218 C 143.98 169.472 151.703 162.983 152.022 162.707 C 152.369 162.406 152.462 161.906 152.246 161.501 C 152.03 161.096 151.565 160.892 151.12 161.015 C 143.786 163.018 130.092 163.729 120.594 163.729 C 109.966 163.729 104.553 162.963 103.228 162.398 C 103.908 161.464 108.102 159.796 113.298 158.773 C 113.795 158.676 114.137 158.217 114.087 157.713 C 114.038 157.209 113.615 156.825 113.109 156.825 C 110.062 156.825 94.785 157.069 93.188 161.899 L 93.188 161.899 Z " id="path977" fill="#FFFFFF"/>
        <path d=" M 162.866 155.215 C 158.571 155.215 154.499 157.369 154.327 157.46 C 153.93 157.673 153.728 158.128 153.837 158.566 C 153.947 159.003 154.34 159.311 154.79 159.311 C 154.881 159.311 163.952 159.385 164.773 164.569 C 165.501 169.042 156.191 176.288 152.542 178.703 C 152.148 178.964 151.995 179.468 152.178 179.904 C 152.334 180.275 152.695 180.507 153.085 180.507 C 153.153 180.507 153.221 180.5 153.29 180.485 C 154.156 180.3 174.471 175.822 172.323 163.989 C 171.013 156.738 166.457 155.215 162.866 155.215 L 162.866 155.215 Z " id="path979" fill="#FFFFFF"/>
        <path d=" M 148.934 177.255 C 149.005 176.876 148.847 176.491 148.532 176.269 L 143.66 172.856 C 143.423 172.69 143.123 172.637 142.844 172.711 C 142.793 172.724 137.699 174.064 130.303 174.885 C 127.368 175.215 124.08 175.388 120.795 175.388 C 113.401 175.388 108.567 174.519 107.863 173.882 C 107.769 173.703 107.799 173.622 107.816 173.576 C 107.943 173.22 108.629 172.798 109.071 172.63 C 109.559 172.45 109.822 171.919 109.67 171.422 C 109.519 170.923 109.006 170.63 108.499 170.752 C 103.613 171.931 101.223 173.581 101.397 175.654 C 101.706 179.331 110.218 181.218 117.415 181.716 C 118.449 181.787 119.569 181.823 120.74 181.823 C 120.741 181.823 120.742 181.823 120.742 181.823 C 132.709 181.823 148.049 178.067 148.203 178.029 C 148.577 177.938 148.863 177.635 148.934 177.255 L 148.934 177.255 Z " id="path981" fill="#FFFFFF"/>
        <path d=" M 112.209 185.145 C 112.578 184.905 112.742 184.449 112.611 184.029 C 112.48 183.608 112.087 183.332 111.646 183.338 C 110.991 183.356 105.238 183.615 104.836 187.279 C 104.714 188.374 105.027 189.375 105.768 190.253 C 107.833 192.701 113.409 194.157 122.811 194.702 C 123.923 194.769 125.053 194.802 126.169 194.802 C 138.122 194.802 146.171 191.059 146.509 190.899 C 146.835 190.745 147.051 190.423 147.07 190.062 C 147.089 189.701 146.909 189.359 146.601 189.17 L 140.445 185.411 C 140.231 185.281 139.976 185.237 139.732 185.287 C 139.693 185.296 135.784 186.106 129.885 186.908 C 128.769 187.059 127.371 187.137 125.731 187.137 C 119.839 187.137 113.285 186.173 112.028 185.543 C 112.009 185.425 112.033 185.276 112.209 185.145 L 112.209 185.145 Z " id="path983" fill="#FFFFFF"/>
        <path d=" M 120.598 206.106 C 147.977 206.082 162.671 201.212 165.502 198.147 C 166.504 197.063 166.612 196.036 166.527 195.366 C 166.317 193.716 164.814 192.706 164.644 192.596 C 164.233 192.331 163.681 192.401 163.361 192.77 C 163.041 193.14 163.033 193.681 163.354 194.05 C 163.527 194.273 163.627 194.645 163.122 195.15 C 161.99 196.207 150.577 199.417 131.573 200.381 C 128.97 200.516 126.239 200.585 123.458 200.585 C 106.443 200.585 93.99 198.254 92.355 196.895 C 92.985 195.99 97.39 194.543 102.074 193.725 C 102.602 193.632 102.959 193.135 102.877 192.605 C 102.795 192.076 102.307 191.711 101.774 191.78 C 101.642 191.798 101.193 191.825 100.674 191.857 C 92.945 192.329 84.014 193.381 83.547 197.365 C 83.406 198.579 83.767 199.681 84.62 200.64 C 86.707 202.986 92.707 206.105 120.597 206.105 C 120.598 206.106 120.598 206.106 120.598 206.106 L 120.598 206.106 Z " id="path985" fill="#FFFFFF"/>
        <path d=" M 170.879 199.011 C 170.492 198.832 170.035 198.922 169.746 199.234 C 169.706 199.277 165.59 203.583 153.213 206.111 C 148.475 207.061 139.581 207.543 126.779 207.543 C 113.952 207.543 101.747 207.038 101.626 207.033 C 101.116 207.008 100.68 207.379 100.61 207.881 C 100.541 208.382 100.864 208.855 101.356 208.972 C 101.483 209.002 114.274 212 131.763 212 C 140.151 212 148.313 211.319 156.024 209.974 C 170.4 207.453 171.407 200.322 171.443 200.019 C 171.493 199.597 171.266 199.19 170.879 199.011 L 170.879 199.011 Z " id="path987" fill="#FFFFFF"/>
      </g>
    </g>
  </switch>
</svg>
